static/assets/images/networks/kava.svg

<svg xmlns="http://www.w3.org/2000/svg" fill="none" viewBox="0 0 512 512"><path fill="#FF564F" d="M256 512c141.385 0 256-114.615 256-256S397.385 0 256 0 0 114.615 0 256s114.615 256 256 256"/><path fill="#fff" d="M188.233 403.957v-295.78h-51.641v295.78zM329.368 403.89 216.22 256l113.148-147.89h64.656L282.555 256l111.469 147.89z"/></svg>

<svg width="512" height="512" viewBox="0 0 512 512" fill="none" xmlns="http://www.w3.org/2000/svg">
<path d="M256 512C397.385 512 512 397.385 512 256C512 114.615 397.385 0 256 0C114.615 0 0 114.615 0 256C0 397.385 114.615 512 256 512Z" fill="#FF564F"/>
<path d="M188.233 403.957V108.177H136.592V403.957H188.233Z" fill="white"/>
<path d="M329.368 403.89L216.22 256L329.368 108.11H394.024L282.555 256L394.024 403.89H329.368Z" fill="white"/>
</svg>
